images/3233117.svg

<?xml version="1.0" encoding="UTF-8"?>
<svg xmlns="http://www.w3.org/2000/svg" xmlns:xlink="http://www.w3.org/1999/xlink" width="300pt" height="300pt" viewBox="0 0 300 300" version="1.1">
<defs>
<g>
<symbol overflow="visible" id="glyph0-0">
<path style="stroke:none;" d="M 0.640625 2.296875 L 0.640625 -9.171875 L 7.140625 -9.171875 L 7.140625 2.296875 Z M 1.375 1.578125 L 6.421875 1.578125 L 6.421875 -8.4375 L 1.375 -8.4375 Z M 1.375 1.578125 "/>
</symbol>
<symbol overflow="visible" id="glyph0-1">
<path style="stroke:none;" d="M 5.125 -8.609375 C 4.1875 -8.609375 3.441406 -8.257812 2.890625 -7.5625 C 2.347656 -6.875 2.078125 -5.929688 2.078125 -4.734375 C 2.078125 -3.535156 2.347656 -2.585938 2.890625 -1.890625 C 3.441406 -1.203125 4.1875 -0.859375 5.125 -0.859375 C 6.050781 -0.859375 6.785156 -1.203125 7.328125 -1.890625 C 7.878906 -2.585938 8.15625 -3.535156 8.15625 -4.734375 C 8.15625 -5.929688 7.878906 -6.875 7.328125 -7.5625 C 6.785156 -8.257812 6.050781 -8.609375 5.125 -8.609375 Z M 5.125 -9.65625 C 6.445312 -9.65625 7.503906 -9.207031 8.296875 -8.3125 C 9.097656 -7.414062 9.5 -6.222656 9.5 -4.734375 C 9.5 -3.234375 9.097656 -2.035156 8.296875 -1.140625 C 7.503906 -0.253906 6.445312 0.1875 5.125 0.1875 C 3.789062 0.1875 2.722656 -0.253906 1.921875 -1.140625 C 1.128906 -2.035156 0.734375 -3.234375 0.734375 -4.734375 C 0.734375 -6.222656 1.128906 -7.414062 1.921875 -8.3125 C 2.722656 -9.207031 3.789062 -9.65625 5.125 -9.65625 Z M 5.125 -9.65625 "/>
</symbol>
<symbol overflow="visible" id="glyph0-2">
<path style="stroke:none;" d="M 1.28125 -9.484375 L 3 -9.484375 L 7.203125 -1.546875 L 7.203125 -9.484375 L 8.453125 -9.484375 L 8.453125 0 L 6.71875 0 L 2.515625 -7.921875 L 2.515625 0 L 1.28125 0 Z M 1.28125 -9.484375 "/>
</symbol>
</g>
</defs>
<g id="surface38565">
<rect x="0" y="0" width="300" height="300" style="fill:rgb(100%,100%,100%);fill-opacity:1;stroke:none;"/>
<path style="fill:none;stroke-width:1.2;stroke-linecap:butt;stroke-linejoin:miter;stroke:rgb(0%,0%,0%);stroke-opacity:1;stroke-miterlimit:10;" d="M 38.15625 188.023438 L 52.199219 179.355469 "/>
<path style="fill:none;stroke-width:1.2;stroke-linecap:butt;stroke-linejoin:miter;stroke:rgb(100%,0%,0%);stroke-opacity:1;stroke-miterlimit:10;" d="M 52.199219 179.355469 L 66.238281 170.691406 "/>
<path style="fill:none;stroke-width:1.2;stroke-linecap:butt;stroke-linejoin:miter;stroke:rgb(100%,0%,0%);stroke-opacity:1;stroke-miterlimit:10;" d="M 66.238281 170.691406 L 65.753906 154.199219 "/>
<path style="fill:none;stroke-width:1.2;stroke-linecap:butt;stroke-linejoin:miter;stroke:rgb(0%,0%,0%);stroke-opacity:1;stroke-miterlimit:10;" d="M 65.753906 154.199219 L 65.269531 137.703125 "/>
<path style=" stroke:none;fill-rule:nonzero;fill:rgb(100%,100%,100%);fill-opacity:1;" d="M 61.238281 162.691406 L 72.238281 162.691406 L 72.238281 178.691406 L 61.238281 178.691406 Z M 61.238281 162.691406 "/>
<g style="fill:rgb(100%,0%,0%);fill-opacity:1;">
  <use xlink:href="#glyph0-1" x="61.238281" y="175.067383"/>
</g>
<path style="fill:none;stroke-width:1.2;stroke-linecap:butt;stroke-linejoin:miter;stroke:rgb(0%,0%,0%);stroke-opacity:1;stroke-miterlimit:10;" d="M 65.269531 137.703125 L 36.21875 122.050781 "/>
<path style="fill:none;stroke-width:1.2;stroke-linecap:butt;stroke-linejoin:miter;stroke:rgb(0%,0%,0%);stroke-opacity:1;stroke-miterlimit:10;" d="M 66.046875 129.304688 L 42.808594 116.78125 "/>
<path style="fill:none;stroke-width:1.2;stroke-linecap:butt;stroke-linejoin:miter;stroke:rgb(0%,0%,0%);stroke-opacity:1;stroke-miterlimit:10;" d="M 93.351562 120.371094 L 65.269531 137.703125 "/>
<path style="fill:none;stroke-width:1.2;stroke-linecap:butt;stroke-linejoin:miter;stroke:rgb(0%,0%,0%);stroke-opacity:1;stroke-miterlimit:10;" d="M 36.21875 122.050781 L 35.25 89.066406 "/>
<path style="fill:none;stroke-width:1.2;stroke-linecap:butt;stroke-linejoin:miter;stroke:rgb(0%,0%,0%);stroke-opacity:1;stroke-miterlimit:10;" d="M 35.25 89.066406 L 63.332031 71.734375 "/>
<path style="fill:none;stroke-width:1.2;stroke-linecap:butt;stroke-linejoin:miter;stroke:rgb(0%,0%,0%);stroke-opacity:1;stroke-miterlimit:10;" d="M 42.136719 93.941406 L 64.601562 80.074219 "/>
<path style="fill:none;stroke-width:1.2;stroke-linecap:butt;stroke-linejoin:miter;stroke:rgb(0%,0%,0%);stroke-opacity:1;stroke-miterlimit:10;" d="M 63.332031 71.734375 L 92.382812 87.386719 "/>
<path style="fill:none;stroke-width:1.2;stroke-linecap:butt;stroke-linejoin:miter;stroke:rgb(0%,0%,0%);stroke-opacity:1;stroke-miterlimit:10;" d="M 92.382812 87.386719 L 93.351562 120.371094 "/>
<path style="fill:none;stroke-width:1.2;stroke-linecap:butt;stroke-linejoin:miter;stroke:rgb(0%,0%,0%);stroke-opacity:1;stroke-miterlimit:10;" d="M 84.71875 90.914062 L 85.492188 117.300781 "/>
<path style="fill:none;stroke-width:1.2;stroke-linecap:butt;stroke-linejoin:miter;stroke:rgb(0%,0%,0%);stroke-opacity:1;stroke-miterlimit:10;" d="M 93.351562 120.371094 L 122.402344 136.027344 "/>
<path style="fill:none;stroke-width:1.2;stroke-linecap:butt;stroke-linejoin:miter;stroke:rgb(0%,0%,0%);stroke-opacity:1;stroke-miterlimit:10;" d="M 122.402344 136.027344 L 122.886719 152.519531 "/>
<path style="fill:none;stroke-width:1.2;stroke-linecap:butt;stroke-linejoin:miter;stroke:rgb(0%,0%,100%);stroke-opacity:1;stroke-miterlimit:10;" d="M 122.886719 152.519531 L 123.371094 169.011719 "/>
<path style="fill:none;stroke-width:1.2;stroke-linecap:butt;stroke-linejoin:miter;stroke:rgb(0%,0%,0%);stroke-opacity:1;stroke-miterlimit:10;" d="M 130.261719 139.097656 L 130.648438 152.289062 "/>
<path style="fill:none;stroke-width:1.2;stroke-linecap:butt;stroke-linejoin:miter;stroke:rgb(0%,0%,100%);stroke-opacity:1;stroke-miterlimit:10;" d="M 130.648438 152.289062 L 131.035156 165.484375 "/>
<path style="fill:none;stroke-width:1.2;stroke-linecap:butt;stroke-linejoin:miter;stroke:rgb(0%,0%,100%);stroke-opacity:1;stroke-miterlimit:10;" d="M 150.484375 118.695312 L 136.445312 127.359375 "/>
<path style="fill:none;stroke-width:1.2;stroke-linecap:butt;stroke-linejoin:miter;stroke:rgb(0%,0%,0%);stroke-opacity:1;stroke-miterlimit:10;" d="M 136.445312 127.359375 L 122.402344 136.027344 "/>
<path style="fill:none;stroke-width:1.2;stroke-linecap:butt;stroke-linejoin:miter;stroke:rgb(0%,0%,100%);stroke-opacity:1;stroke-miterlimit:10;" d="M 123.371094 169.011719 L 137.898438 176.835938 "/>
<path style="fill:none;stroke-width:1.2;stroke-linecap:butt;stroke-linejoin:miter;stroke:rgb(0%,0%,0%);stroke-opacity:1;stroke-miterlimit:10;" d="M 137.898438 176.835938 L 152.421875 184.664062 "/>
<path style=" stroke:none;fill-rule:nonzero;fill:rgb(100%,100%,100%);fill-opacity:1;" d="M 118.371094 161.011719 L 128.371094 161.011719 L 128.371094 177.011719 L 118.371094 177.011719 Z M 118.371094 161.011719 "/>
<g style="fill:rgb(0%,0%,100%);fill-opacity:1;">
  <use xlink:href="#glyph0-2" x="118.371094" y="173.387695"/>
</g>
<path style="fill:none;stroke-width:1.2;stroke-linecap:butt;stroke-linejoin:miter;stroke:rgb(0%,0%,0%);stroke-opacity:1;stroke-miterlimit:10;" d="M 152.421875 184.664062 L 153.394531 217.648438 "/>
<path style="fill:none;stroke-width:1.2;stroke-linecap:butt;stroke-linejoin:miter;stroke:rgb(0%,0%,0%);stroke-opacity:1;stroke-miterlimit:10;" d="M 160.28125 187.734375 L 161.058594 214.125 "/>
<path style="fill:none;stroke-width:1.2;stroke-linecap:butt;stroke-linejoin:miter;stroke:rgb(0%,0%,0%);stroke-opacity:1;stroke-miterlimit:10;" d="M 180.503906 167.332031 L 152.421875 184.664062 "/>
<path style="fill:none;stroke-width:1.2;stroke-linecap:butt;stroke-linejoin:miter;stroke:rgb(0%,0%,0%);stroke-opacity:1;stroke-miterlimit:10;" d="M 153.394531 217.648438 L 182.445312 233.304688 "/>
<path style="fill:none;stroke-width:1.2;stroke-linecap:butt;stroke-linejoin:miter;stroke:rgb(0%,0%,0%);stroke-opacity:1;stroke-miterlimit:10;" d="M 182.445312 233.304688 L 210.523438 215.972656 "/>
<path style="fill:none;stroke-width:1.2;stroke-linecap:butt;stroke-linejoin:miter;stroke:rgb(0%,0%,0%);stroke-opacity:1;stroke-miterlimit:10;" d="M 181.171875 224.960938 L 203.640625 211.097656 "/>
<path style="fill:none;stroke-width:1.2;stroke-linecap:butt;stroke-linejoin:miter;stroke:rgb(0%,0%,0%);stroke-opacity:1;stroke-miterlimit:10;" d="M 210.523438 215.972656 L 209.554688 182.984375 "/>
<path style="fill:none;stroke-width:1.2;stroke-linecap:butt;stroke-linejoin:miter;stroke:rgb(0%,0%,0%);stroke-opacity:1;stroke-miterlimit:10;" d="M 209.554688 182.984375 L 180.503906 167.332031 "/>
<path style="fill:none;stroke-width:1.2;stroke-linecap:butt;stroke-linejoin:miter;stroke:rgb(0%,0%,0%);stroke-opacity:1;stroke-miterlimit:10;" d="M 202.96875 188.253906 L 179.726562 175.734375 "/>
<path style="fill:none;stroke-width:1.2;stroke-linecap:butt;stroke-linejoin:miter;stroke:rgb(0%,0%,0%);stroke-opacity:1;stroke-miterlimit:10;" d="M 180.503906 167.332031 L 179.535156 134.347656 "/>
<path style="fill:none;stroke-width:1.2;stroke-linecap:butt;stroke-linejoin:miter;stroke:rgb(0%,0%,0%);stroke-opacity:1;stroke-miterlimit:10;" d="M 179.535156 134.347656 L 165.011719 126.519531 "/>
<path style="fill:none;stroke-width:1.2;stroke-linecap:butt;stroke-linejoin:miter;stroke:rgb(0%,0%,100%);stroke-opacity:1;stroke-miterlimit:10;" d="M 165.011719 126.519531 L 150.484375 118.695312 "/>
<path style="fill:none;stroke-width:1.2;stroke-linecap:butt;stroke-linejoin:miter;stroke:rgb(0%,0%,0%);stroke-opacity:1;stroke-miterlimit:10;" d="M 172.949219 139.617188 L 161.328125 133.355469 "/>
<path style="fill:none;stroke-width:1.2;stroke-linecap:butt;stroke-linejoin:miter;stroke:rgb(0%,0%,100%);stroke-opacity:1;stroke-miterlimit:10;" d="M 161.328125 133.355469 L 149.707031 127.09375 "/>
<path style="fill:none;stroke-width:1.2;stroke-linecap:butt;stroke-linejoin:miter;stroke:rgb(0%,0%,0%);stroke-opacity:1;stroke-miterlimit:10;" d="M 179.535156 134.347656 L 193.578125 125.679688 "/>
<path style="fill:none;stroke-width:1.2;stroke-linecap:butt;stroke-linejoin:miter;stroke:rgb(0%,0%,100%);stroke-opacity:1;stroke-miterlimit:10;" d="M 193.578125 125.679688 L 207.617188 117.015625 "/>
<path style=" stroke:none;fill-rule:nonzero;fill:rgb(100%,100%,100%);fill-opacity:1;" d="M 145.484375 110.695312 L 155.484375 110.695312 L 155.484375 126.695312 L 145.484375 126.695312 Z M 145.484375 110.695312 "/>
<g style="fill:rgb(0%,0%,100%);fill-opacity:1;">
  <use xlink:href="#glyph0-2" x="145.484375" y="123.071289"/>
</g>
<path style="fill:none;stroke-width:1.2;stroke-linecap:butt;stroke-linejoin:miter;stroke:rgb(0%,0%,100%);stroke-opacity:1;stroke-miterlimit:10;" d="M 207.617188 117.015625 L 222.144531 124.839844 "/>
<path style="fill:none;stroke-width:1.2;stroke-linecap:butt;stroke-linejoin:miter;stroke:rgb(0%,0%,0%);stroke-opacity:1;stroke-miterlimit:10;" d="M 222.144531 124.839844 L 236.667969 132.667969 "/>
<path style="fill:none;stroke-width:1.2;stroke-linecap:butt;stroke-linejoin:miter;stroke:rgb(0%,0%,0%);stroke-opacity:1;stroke-miterlimit:10;" d="M 206.648438 84.027344 L 207.132812 100.523438 "/>
<path style="fill:none;stroke-width:1.2;stroke-linecap:butt;stroke-linejoin:miter;stroke:rgb(0%,0%,100%);stroke-opacity:1;stroke-miterlimit:10;" d="M 207.132812 100.523438 L 207.617188 117.015625 "/>
<path style=" stroke:none;fill-rule:nonzero;fill:rgb(100%,100%,100%);fill-opacity:1;" d="M 202.617188 109.015625 L 212.617188 109.015625 L 212.617188 125.015625 L 202.617188 125.015625 Z M 202.617188 109.015625 "/>
<g style="fill:rgb(0%,0%,100%);fill-opacity:1;">
  <use xlink:href="#glyph0-2" x="202.617188" y="121.391602"/>
</g>
<path style="fill:none;stroke-width:1.2;stroke-linecap:butt;stroke-linejoin:miter;stroke:rgb(0%,0%,0%);stroke-opacity:1;stroke-miterlimit:10;" d="M 236.667969 132.667969 L 264.75 115.335938 "/>
<path style="fill:none;stroke-width:1.2;stroke-linecap:butt;stroke-linejoin:miter;stroke:rgb(0%,0%,0%);stroke-opacity:1;stroke-miterlimit:10;" d="M 264.75 115.335938 L 264.265625 98.84375 "/>
<path style="fill:none;stroke-width:1.2;stroke-linecap:butt;stroke-linejoin:miter;stroke:rgb(100%,0%,0%);stroke-opacity:1;stroke-miterlimit:10;" d="M 264.265625 98.84375 L 263.78125 82.351562 "/>
<path style="fill:none;stroke-width:1.2;stroke-linecap:butt;stroke-linejoin:miter;stroke:rgb(100%,0%,0%);stroke-opacity:1;stroke-miterlimit:10;" d="M 263.78125 82.351562 L 249.253906 74.523438 "/>
<path style="fill:none;stroke-width:1.2;stroke-linecap:butt;stroke-linejoin:miter;stroke:rgb(0%,0%,0%);stroke-opacity:1;stroke-miterlimit:10;" d="M 249.253906 74.523438 L 234.730469 66.695312 "/>
<path style=" stroke:none;fill-rule:nonzero;fill:rgb(100%,100%,100%);fill-opacity:1;" d="M 258.78125 74.351562 L 269.78125 74.351562 L 269.78125 90.351562 L 258.78125 90.351562 Z M 258.78125 74.351562 "/>
<g style="fill:rgb(100%,0%,0%);fill-opacity:1;">
  <use xlink:href="#glyph0-1" x="258.78125" y="86.727539"/>
</g>
<path style="fill:none;stroke-width:1.2;stroke-linecap:butt;stroke-linejoin:miter;stroke:rgb(0%,0%,0%);stroke-opacity:1;stroke-miterlimit:10;" d="M 234.730469 66.695312 L 206.648438 84.027344 "/>
</g>
</svg>

<svg xmlns="http://www.w3.org/2000/svg" xmlns:xlink="http://www.w3.org/1999/xlink" width="300pt" height="300pt" viewBox="0 0 300 300"><defs><symbol overflow="visible"><path d="M.64 2.297v-11.47h6.5v11.47zm.735-.72h5.047V-8.436H1.375zm0 0"/></symbol><symbol overflow="visible" id="a"><path d="M5.125-8.61c-.938 0-1.684.352-2.234 1.047-.542.688-.812 1.633-.812 2.83 0 1.198.27 2.147.813 2.842.55.687 1.297 1.03 2.235 1.03.926 0 1.66-.343 2.203-1.03.55-.696.828-1.645.828-2.844 0-1.196-.277-2.14-.828-2.829-.543-.695-1.277-1.046-2.203-1.046zm0-1.046c1.32 0 2.38.45 3.172 1.344.8.898 1.203 2.09 1.203 3.578 0 1.5-.402 2.7-1.203 3.593C7.504-.255 6.445.186 5.125.186c-1.336 0-2.402-.44-3.203-1.328C1.13-2.036.734-3.235.734-4.735c0-1.49.395-2.68 1.188-3.579.8-.894 1.867-1.343 3.203-1.343zm0 0"/></symbol><symbol overflow="visible" id="b"><path d="M1.28-9.484H3l4.203 7.937v-7.937h1.25V0H6.72L2.515-7.922V0H1.28zm0 0"/></symbol></defs><g><path fill="#fff" d="M0 0h300v300H0z"/><path d="M38.156 188.023l14.043-8.668" stroke-width="1.2" stroke="#000" stroke-miterlimit="10" fill="none"/><path d="M52.2 179.355l14.038-8.664M66.238 170.69l-.484-16.49" stroke-width="1.2" stroke="#f00" stroke-miterlimit="10" fill="none"/><path d="M65.754 154.2l-.484-16.497" stroke-width="1.2" stroke="#000" stroke-miterlimit="10" fill="none"/><path d="M61.238 162.69h11v16h-11zm0 0" fill="#fff"/><use xlink:href="#a" x="61.238" y="175.067" fill="#f00"/><path d="M65.27 137.703L36.22 122.05M66.047 129.305L42.81 116.78M93.352 120.37L65.27 137.704M36.22 122.05l-.97-32.984M35.25 89.066l28.082-17.332M42.137 93.94l22.465-13.866M63.332 71.734l29.05 15.653M92.383 87.387l.97 32.984M84.72 90.914l.772 26.387M93.352 120.37l29.05 15.657M122.402 136.027l.485 16.493" stroke-width="1.2" stroke="#000" stroke-miterlimit="10" fill="none"/><path d="M122.887 152.52l.484 16.492" stroke-width="1.2" stroke="#00f" stroke-miterlimit="10" fill="none"/><path d="M130.262 139.098l.386 13.19" stroke-width="1.2" stroke="#000" stroke-miterlimit="10" fill="none"/><path d="M130.648 152.29l.387 13.194M150.484 118.695l-14.04 8.664" stroke-width="1.2" stroke="#00f" stroke-miterlimit="10" fill="none"/><path d="M136.445 127.36l-14.043 8.667" stroke-width="1.2" stroke="#000" stroke-miterlimit="10" fill="none"/><path d="M123.37 169.012l14.528 7.824" stroke-width="1.2" stroke="#00f" stroke-miterlimit="10" fill="none"/><path d="M137.898 176.836l14.524 7.828" stroke-width="1.2" stroke="#000" stroke-miterlimit="10" fill="none"/><path d="M118.37 161.012h10v16h-10zm0 0" fill="#fff"/><use xlink:href="#b" x="118.371" y="173.388" fill="#00f"/><path d="M152.422 184.664l.973 32.984M160.28 187.734l.78 26.39M180.504 167.332l-28.082 17.332M153.395 217.648l29.05 15.657M182.445 233.305l28.078-17.332M181.172 224.96l22.47-13.862M210.523 215.973l-.968-32.99M209.555 182.984l-29.05-15.652M202.97 188.254l-23.243-12.52M180.504 167.332l-.97-32.984M179.535 134.348l-14.523-7.828" stroke-width="1.2" stroke="#000" stroke-miterlimit="10" fill="none"/><path d="M165.012 126.52l-14.528-7.825" stroke-width="1.2" stroke="#00f" stroke-miterlimit="10" fill="none"/><path d="M172.95 139.617l-11.622-6.262" stroke-width="1.2" stroke="#000" stroke-miterlimit="10" fill="none"/><path d="M161.328 133.355l-11.62-6.26" stroke-width="1.2" stroke="#00f" stroke-miterlimit="10" fill="none"/><path d="M179.535 134.348l14.043-8.668" stroke-width="1.2" stroke="#000" stroke-miterlimit="10" fill="none"/><path d="M193.578 125.68l14.04-8.664" stroke-width="1.2" stroke="#00f" stroke-miterlimit="10" fill="none"/><path d="M145.484 110.695h10v16h-10zm0 0" fill="#fff"/><use xlink:href="#b" x="145.484" y="123.071" fill="#00f"/><path d="M207.617 117.016l14.528 7.824" stroke-width="1.2" stroke="#00f" stroke-miterlimit="10" fill="none"/><path d="M222.145 124.84l14.523 7.828M206.648 84.027l.485 16.496" stroke-width="1.2" stroke="#000" stroke-miterlimit="10" fill="none"/><path d="M207.133 100.523l.484 16.493" stroke-width="1.2" stroke="#00f" stroke-miterlimit="10" fill="none"/><path d="M202.617 109.016h10v16h-10zm0 0" fill="#fff"/><use xlink:href="#b" x="202.617" y="121.392" fill="#00f"/><path d="M236.668 132.668l28.082-17.332M264.75 115.336l-.484-16.492" stroke-width="1.2" stroke="#000" stroke-miterlimit="10" fill="none"/><path d="M264.266 98.844l-.485-16.492M263.78 82.352l-14.526-7.83" stroke-width="1.2" stroke="#f00" stroke-miterlimit="10" fill="none"/><path d="M249.254 74.523l-14.524-7.828" stroke-width="1.2" stroke="#000" stroke-miterlimit="10" fill="none"/><path d="M258.78 74.352h11v16h-11zm0 0" fill="#fff"/><use xlink:href="#a" x="258.781" y="86.728" fill="#f00"/><path d="M234.73 66.695l-28.082 17.332" stroke-width="1.2" stroke="#000" stroke-miterlimit="10" fill="none"/></g></svg>
